X:190
T:The Mountain Road
R:reel
M:4/4
L:1/8
K:Dmaj
F2 AF BFAF| F2 AF EFDE| F2 AF BFAF| G2 FG EFDE|
F2 AF BFAF|F2 AF EFD2| FAA2 BAFA|BABd eddA|
d2dA BAFA| d2 de fgfe| d2 dA BAFA| G2 FG EDFA|
d2 dA BAFA| d2 de fgfe| d2 dA BAFA| G2 FG EFDE|

